assets/icons/fb.svg

<svg width="26" height="25" viewBox="0 0 26 25" fill="none" xmlns="http://www.w3.org/2000/svg">
<path d="M16.9881 4H14.2711C12.6587 4 10.8653 4.67811 10.8653 7.01522C10.8732 7.82956 10.8653 8.60945 10.8653 9.48717H9V12.4553H10.923V21H14.4567V12.3989H16.789L17 9.47885H14.3958C14.3958 9.47885 14.4016 8.17988 14.3958 7.80265C14.3958 6.87908 15.3568 6.93197 15.4146 6.93197C15.8719 6.93197 16.7612 6.9333 16.9894 6.93197V4H16.9881Z" fill="#A6A6A6"/>
</svg>

<svg xmlns="http://www.w3.org/2000/svg" width="26" height="26" fill="none"><path fill="#A6A6A6" d="M16.988 4h-2.717c-1.612 0-3.406.678-3.406 3.015.008.815 0 1.594 0 2.472H9v2.968h1.923V21h3.534v-8.601h2.332L17 9.479h-2.604s.006-1.3 0-1.676c0-.924.96-.871 1.019-.871h1.574V4Z"/></svg>
